!!!filter: transpose -k c
**kern	**kern	**kern	**kern	**mxhm
*part3	*part2	*part1	*part1	*part1
*staff4	*staff3	*staff2	*staff1	*
*clefG2	*clefG2	*clefG2	*clefG2	*
*k[]	*k[]	*k[]	*k[]	*
*C:	*C:	*C:	*C:	*C:
*M4/4	*M4/4	*M4/4	*M4/4	*
=1-	=1-	=1-	=1-	=1-
2r	2r	2r	2r	.
!!LO:TX:a:t=N.C.	!!LO:TX:a:t=N.C.	!!LO:TX:a:t=N.C.	!!LO:TX:a:t=N.C.	
4c	4c	4c	4c	.
4d	4d	4d	4d	.
=2	=2	=2	=2	=2
2e	2e	2e	2e	C 
4e	4e	4e	4e	.
4g	4g	4g	4g	.
=3	=3	=3	=3	=3
2f	2f	2f	2f	G dominant
4f	4f	4f	4f	.
4a	4a	4a	4a	.
=4	=4	=4	=4	=4
4.g	4.g	4.g	4.g	C major
8a	8a	8a	8a	.
4g	4g	4g	4g	.
4f	4f	4f	4f	.
=5	=5	=5	=5	=5
1e	1e	1e	1e	.
=6	=6	=6	=6	=6
4.g	4.g	4.g	4.g	.
8a	8a	8a	8a	.
4g	4g	4g	4g	.
4f	4f	4f	4f	.
=7	=7	=7	=7	=7
2e	2e	2e	2e	.
4e	4e	4e	4e	.
4g	4g	4g	4g	.
=8	=8	=8	=8	=8
2f	2f	2f	2f	D minor
4f	4f	4f	4f	.
4e	4e	4e	4e	.
=9	=9	=9	=9	=9
2d	2d	2d	2d	G dominant
2g	2g	2g	2g	.
=10	=10	=10	=10	=10
[1e	[1e	[1e	[1e	C major
=11	=11	=11	=11	=11
2e]	2e]	2e]	2e]	.
!!LO:TX:a:t=N.C.	!!LO:TX:a:t=N.C.	!!LO:TX:a:t=N.C.	!!LO:TX:a:t=N.C.	
4c	4c	4c	4c	.
4d	4d	4d	4d	.
=12:,!	=12:,!	=12:,!	=12:,!	=12:,!
2d	2d	2d	2d	G dominant
2e	2e	2e	2e	.
=13	=13	=13	=13	=13
[1c	[1c	[1c	[1c	C major
=14	=14	=14	=14	=14
2c]	2c]	2c]	2c]	F major
4c	4c	4c	4c	C major
!!LO:TX:a:t=N.C.	!!LO:TX:a:t=N.C.	!!LO:TX:a:t=N.C.	!!LO:TX:a:t=N.C.	
4e	4e	4e	4e	.
=15	=15	=15	=15	=15
2.d	2.d	2.d	2.d	D minor
4e	4e	4e	4e	.
=16	=16	=16	=16	=16
2.f	2.f	2.f	2.f	G dominant
4d	4d	4d	4d	.
=17	=17	=17	=17	=17
2.e	2.e	2.e	2.e	C major
4f	4f	4f	4f	.
=18	=18	=18	=18	=18
2g	2g	2g	2g	C dominant
4g	4g	4g	4g	.
4g	4g	4g	4g	.
=19	=19	=19	=19	=19
2a	2a	2a	2a	F major
2a	2a	2a	2a	.
=20	=20	=20	=20	=20
2cc	2cc	2cc	2cc	.
4b	4b	4b	4b	.
4a	4a	4a	4a	.
=21	=21	=21	=21	=21
[1g	[1g	[1g	[1g	C major
=22	=22	=22	=22	=22
2g]	2g]	2g]	2g]	G dominant
!!LO:TX:a:t=N.C.	!!LO:TX:a:t=N.C.	!!LO:TX:a:t=N.C.	!!LO:TX:a:t=N.C.	
4c	4c	4c	4c	.
4d	4d	4d	4d	.
=23	=23	=23	=23	=23
2e	2e	2e	2e	C major
4e	4e	4e	4e	.
4g	4g	4g	4g	.
=24	=24	=24	=24	=24
2f	2f	2f	2f	G dominant
4f	4f	4f	4f	.
4a	4a	4a	4a	.
=25	=25	=25	=25	=25
4.g	4.g	4.g	4.g	C major
8a	8a	8a	8a	.
4g	4g	4g	4g	.
4f	4f	4f	4f	.
=26	=26	=26	=26	=26
2.e	2.e	2.e	2.e	.
4e	4e	4e	4e	.
=27	=27	=27	=27	=27
4.g	4.g	4.g	4.g	.
8a	8a	8a	8a	.
4g	4g	4g	4g	.
4f	4f	4f	4f	.
=28	=28	=28	=28	=28
2e	2e	2e	2e	.
4e	4e	4e	4e	.
4g	4g	4g	4g	.
=29	=29	=29	=29	=29
2f	2f	2f	2f	D minor
4f	4f	4f	4f	.
4e	4e	4e	4e	.
=30	=30	=30	=30	=30
2d	2d	2d	2d	G dominant
2e	2e	2e	2e	.
=31	=31	=31	=31	=31
[1c	[1c	[1c	[1c	C major
=32	=32	=32	=32	=32
2c]	2c]	2c]	2c]	F major
2r	2r	2r	2r	C major
Err:520	Err:520	Err:520	Err:520	Err:520
*-	*-	*-	*-	*-
